svgs/app_launcher.svg

<svg width="192" height="192" viewBox="0 0 192 192" fill="none" xmlns="http://www.w3.org/2000/svg">
<path d="M150.658 60C161.152 60 169.659 51.4934 169.659 41C169.659 30.5066 161.152 22 150.658 22C140.165 22 131.658 30.5066 131.658 41C131.658 51.4934 140.165 60 150.658 60Z" stroke="black" stroke-width="12" stroke-miterlimit="5" stroke-linecap="round" stroke-linejoin="round"/>
<path d="M150.658 114.829C161.152 114.829 169.659 106.322 169.659 95.8288C169.659 85.3354 161.152 76.8288 150.658 76.8288C140.165 76.8288 131.658 85.3354 131.658 95.8288C131.658 106.322 140.165 114.829 150.658 114.829Z" stroke="black" stroke-width="12" stroke-miterlimit="5" stroke-linecap="round" stroke-linejoin="round"/>
<path d="M150.658 169.658C161.152 169.658 169.659 161.151 169.659 150.658C169.659 140.164 161.152 131.658 150.658 131.658C140.165 131.658 131.658 140.164 131.658 150.658C131.658 161.151 140.165 169.658 150.658 169.658Z" stroke="black" stroke-width="12" stroke-miterlimit="5" stroke-linecap="round" stroke-linejoin="round"/>
<path d="M95.8293 60C106.323 60 114.829 51.4934 114.829 41C114.829 30.5066 106.323 22 95.8293 22C85.3358 22 76.8291 30.5066 76.8291 41C76.8291 51.4934 85.3358 60 95.8293 60Z" stroke="black" stroke-width="12" stroke-miterlimit="5" stroke-linecap="round" stroke-linejoin="round"/>
<path d="M95.8293 114.829C106.323 114.829 114.829 106.322 114.829 95.8288C114.829 85.3354 106.323 76.8288 95.8293 76.8288C85.3358 76.8288 76.8291 85.3354 76.8291 95.8288C76.8291 106.322 85.3358 114.829 95.8293 114.829Z" stroke="black" stroke-width="12" stroke-miterlimit="5" stroke-linecap="round" stroke-linejoin="round"/>
<path d="M95.8293 169.658C106.323 169.658 114.829 161.151 114.829 150.658C114.829 140.164 106.323 131.658 95.8293 131.658C85.3358 131.658 76.8291 140.164 76.8291 150.658C76.8291 161.151 85.3358 169.658 95.8293 169.658Z" stroke="black" stroke-width="12" stroke-miterlimit="5" stroke-linecap="round" stroke-linejoin="round"/>
<path d="M41.0002 60C51.4937 60 60.0004 51.4934 60.0004 41C60.0004 30.5066 51.4937 22 41.0002 22C30.5067 22 22 30.5066 22 41C22 51.4934 30.5067 60 41.0002 60Z" stroke="black" stroke-width="12" stroke-miterlimit="5" stroke-linecap="round" stroke-linejoin="round"/>
<path d="M41.0002 114.829C51.4937 114.829 60.0004 106.322 60.0004 95.8288C60.0004 85.3354 51.4937 76.8288 41.0002 76.8288C30.5067 76.8288 22 85.3354 22 95.8288C22 106.322 30.5067 114.829 41.0002 114.829Z" stroke="black" stroke-width="12" stroke-miterlimit="5" stroke-linecap="round" stroke-linejoin="round"/>
<path d="M41.0002 169.658C51.4937 169.658 60.0004 161.151 60.0004 150.658C60.0004 140.164 51.4937 131.658 41.0002 131.658C30.5067 131.658 22 140.164 22 150.658C22 161.151 30.5067 169.658 41.0002 169.658Z" stroke="black" stroke-width="12" stroke-miterlimit="5" stroke-linecap="round" stroke-linejoin="round"/>
</svg>

<svg width="192" height="192" viewBox="0 0 192 192" fill="none" xmlns="http://www.w3.org/2000/svg"><path d="M150.658 60c10.494 0 19.001-8.507 19.001-19s-8.507-19-19.001-19c-10.493 0-19 8.507-19 19s8.507 19 19 19ZM150.658 114.829c10.494 0 19.001-8.507 19.001-19 0-10.494-8.507-19-19.001-19-10.493 0-19 8.506-19 19 0 10.493 8.507 19 19 19ZM150.658 169.658c10.494 0 19.001-8.507 19.001-19 0-10.494-8.507-19-19.001-19-10.493 0-19 8.506-19 19 0 10.493 8.507 19 19 19ZM95.83 60c10.493 0 18.999-8.507 18.999-19s-8.506-19-19-19c-10.493 0-19 8.507-19 19s8.507 19 19 19ZM95.83 114.829c10.493 0 18.999-8.507 18.999-19 0-10.494-8.506-19-19-19-10.493 0-19 8.506-19 19 0 10.493 8.507 19 19 19ZM95.83 169.658c10.493 0 18.999-8.507 18.999-19 0-10.494-8.506-19-19-19-10.493 0-19 8.506-19 19 0 10.493 8.507 19 19 19ZM41 60c10.494 0 19-8.507 19-19s-8.506-19-19-19c-10.493 0-19 8.507-19 19s8.507 19 19 19ZM41 114.829c10.494 0 19-8.507 19-19 0-10.494-8.506-19-19-19-10.493 0-19 8.506-19 19 0 10.493 8.507 19 19 19ZM41 169.658c10.494 0 19-8.507 19-19 0-10.494-8.506-19-19-19-10.493 0-19 8.506-19 19 0 10.493 8.507 19 19 19Z" stroke="#000" stroke-width="12" stroke-miterlimit="5" stroke-linecap="round" stroke-linejoin="round"/></svg>
